X: 8
T: KAFOOZALUM
S: "COUNTRY DANCES OF TODAY 2", CDSS, May Gadd ed., 1951 p.13
R: hornpipe
Z: 2010 John Chambers <jc:trillian.mit.edu>
M: C
L: 1/8
K: G
"A"[| "G"d2 d>c B>c d>B | "C"A>B c>B "D"A>B c2 | "G"d2 d>c B>c d>B | "G"G>A B>G "D7"A2 "G"G2 |]
"B"[| "G"b>g d>g b>g b2 | "D"c'>a f>a c'>a c'2 | "G"b>g d>g b>g b2 | "Em"g>a b>g "D7"a2 "G"g2 |]


%%sep 5 1 500

%%sep 1 1 500

